dist/images/p-s-second-section/view.svg

<svg width="11" height="16" viewBox="0 0 11 16" fill="none" xmlns="http://www.w3.org/2000/svg">
<path d="M5.54866 16L1.30566 11.757L2.72066 10.343L5.54866 13.172L8.37666 10.343L9.79166 11.757L5.54866 16Z" fill="#8D8D8D"/>
<path d="M5.54899 -1.67952e-05L9.79199 4.24298L8.37699 5.65698L5.54899 2.82798L2.72099 5.65698L1.30599 4.24298L5.54899 -1.67952e-05Z" fill="#8D8D8D"/>
</svg>

<svg width="11" height="16" fill="none" xmlns="http://www.w3.org/2000/svg"><path d="M5.549 16l-4.243-4.243 1.415-1.414 2.828 2.829 2.828-2.829 1.415 1.414L5.549 16zm0-16l4.243 4.243-1.415 1.414-2.828-2.829-2.828 2.829-1.415-1.414L5.549 0z" fill="#8D8D8D"/></svg>
